X: 651
P: Longways for as many as will
M: C|
L: 1/8
K: C
z2 zc e2 (f3/e//f//) | g3 g aa a3/g//f// | gg gf/g/ aa ag/f/ | ga gf e2 d2 | c3 c |]
d2 e2 d3 c | de fe de dc | B2 A2 G3 c | d2 e2 d3 c |
de fd gfed | c>d d2 c3 |] g | ed ec d/c/d/e/ dg | edec d3 |] d |

